X:1
T:Figlio dormi
T:Figlio dormi
T:Gio.Girolamo Kapsperger
C:Gio.Girolamo Kapsperger
%%score 1 { 2 | 3 }
L:1/8
Q:1/4=120
M:4/4
K:F
V:1 treble nm="Soprano" snm="S"
V:2 treble nm="BC" snm="BC"
V:3 bass 
V:1
 c3 B G2 G2 | B3 c A2 A2 | z2 Bc d3 c | B3 A G2 G2 | ABcA Bc d2 | d c2 d B3 c/B/ | A3 B/A/ G4 | %7
w: Fi- glio dor- mi,|dor- mi fi- glio,|chi- na'l ci- lio,|ca- ro fi- glio,|roc- ciu- tel- lo del- la mam-|* del mio pet- to _|dol- ce _ fiam-|
w: Chia- ma'l son- no|fre- na'il pian- to,|nel mio can- to|dol- ce fi- glio,|la- gri- muc- cie deh ces- sa-|te, e nel son- no _|vi fre- * na-|
w: Lu- ci va- ghe,|lu- ci bel- le,|vi- ne stel- le|del mio fi- glio,|non piu cru- de'al son- na'o- ma-|i, se- re- na- te'i _|vo- str'i- * ra-|
w: Sguar- di'a- ma- ti|dol- ci sguar- di,|vi- ni dar- di|del mio fi- glio,|voi col pian- to mi pia- ga-|te, e nel son- no _|mi be- * a-|
w: Ec- co'il son- no|che l'as- sal- le,|spie- ga l'a- le|sul mio fi- glio,|dol- ce son- no'a te si spet-|ta, tu lo strin- gi _|tu l'al- * let-|
[M:2/4] F4 :: z2 EF |[M:4/4] G3 A B3 A | G2 G2 z2 GA | B2 B2 z2 FG | A6 c2 | =B4 c4 | %14
w: ma|Mio bam-|bi- no pic- ci-|ni- no fa la|nan- na, fa la|nan- na|fi- glio,|
w: te.|||||||
w: i.|||||||
w: te.|||||||
w: ta.|||||||
[M:6/4] c2 c2 c2 B4 B2 | A4 B2 G6 |[M:4/4] F2 A4 G2 | F3 E G3 F | E4 D4 |[M:3/2] z2 d2 d2 d2 c3 c | %20
w: nin- na la nan- na|nin- na nan-|na. A- mo-|ro- so mio te-|so- ro,|nin- na la nan- na|
w: ||* La- gri-|muc- cie per- l'e-|let- te,||
w: ||* Pu- pil-|luc- cie lu- sin-|ghie- re,||
w: ||* Ti- ran-|nuc- ci miei bra-|ma- ti,||
w: ||* Lu- sin-|ga- te- l'o miei|can- ti,||
 B6 c2 c4 |[M:4/4] B2 dc d3 c | B3 A G2 G2 | z2 AB c2 A2- | A2 BA G4 | F8 :| %26
w: nin- na nan-|na, dol- c'e va- go|ric- ciu- tel- lo,|vez- zo- set- to|_ va- go'e bel-|lo.|
w: |* su le guan- cie'a-|la- ba- stri- ne,|mar- ga- ri- te|_ pe- re- gri-|ne.|
w: |* pu- pil- luc- cie|ri- tro- set- te,|ri- tro- suc- cie|_ pu- pi- let-|te.|
w: |* deh- chiu- de- te-|v'in- no- cen- ti,|ti- ran- nuc- ci|_ miei co- cen-|ti.|
w: |* mio dol- cis- si-|mo ri- sto- ro,|mio ric- chis- si-|* mo te- so-|ro.|
V:2
 [FAc]2 [GB]2 [EGc]4 | [DB]4 [^FA]4 | [GB]4 [FB]4 | [FB]3 A [EG]4 | [FAc]6 [FB]2- | %5
 [FB] [Ac]2 A [DB]2 [EGc]2 | [FAd]4 [Fc]2 [EG]2 |[M:2/4] [CFA]4 :: [EG]4 | %9
[M:4/4] [Ec]4 [GBd]2 [^FAd]2 | [GBd-]8 | [GBd]4 [FAd]4 | [FAc]8 | [G=Bd]4 [Gce]4 | %14
[M:6/4] [FAc]6 [DGB]6 | [FA]2 [DFB]4 [Fc]4 [EB]2 |[M:4/4] [CFA]2 [Ac]4 B2 | [Ad]2 [Ac]2 [DBd]4 | %18
 [EA^c]4 [D^FA]4 |[M:3/2] [DFB]8 [CA]4 | [DB]4 [GB]2 [Gc]2 [FAc]4 |[M:4/4] [FBd]8 | %22
 [Gd]2 [Ac]2 [EGc]4 | [FAc]4 [EA]2 [FA]2 | [Fd]4 [Fc]2 [EG]2 | [FA]8 :| %26
V:3
 F,,2 G,,2 C,4 | G,,4 D,4 | z2 G,,A,, B,,3 C, | D,E, F,2 C,4 | F,G,A,F, G,A, B,2 | %5
 B, F,2 F, G,2 C,2 | D,E,F,B,, C,4 |[M:2/4] F,,4 :: C,4 |[M:4/4] C,4 G,,2 D,2 | G,,4 G,4 | %11
 G,4 D,3 E, | F,6 F,2 | G,4 C,4 |[M:6/4] F,,6 G,,6 | D,2 B,,4 C,6 |[M:4/4] F,,2 F,4 E,2 | %17
 D,2 A,,2 G,,4 | A,,4 D,4 |[M:3/2] B,,8 F,4 | G,4 _E,4 F,4 |[M:4/4] B,,2 B,A, B,3 A, | %22
 G,2 F,2 C,4 | F,,3 G,, A,,2 D,2 | B,,4 C,4 | F,,8 :| %26

